tools/download-figma-icons/icons/outlined-medium/energy-gas-circle.svg

<svg width="24" height="24" viewBox="0 0 24 24" fill="none" xmlns="http://www.w3.org/2000/svg">
<path d="M4.5 15.7447C4.30109 15.7447 4.11032 15.8238 3.96967 15.9645C3.82902 16.1052 3.75 16.2961 3.75 16.4952V18.4614C2.16511 16.4537 1.36682 13.9362 1.5049 11.3814C1.64298 8.82664 2.70795 6.41004 4.5 4.58505C5.90017 3.15974 7.68182 2.16926 9.63091 1.7326C11.58 1.29593 13.6136 1.43166 15.4875 2.12348C15.5796 2.15848 15.6777 2.17498 15.7761 2.17205C15.8746 2.16911 15.9715 2.1468 16.0614 2.10638C16.1512 2.06596 16.2322 2.00822 16.2997 1.93647C16.3673 1.86472 16.42 1.78035 16.455 1.6882C16.5206 1.50299 16.511 1.29941 16.4283 1.1212C16.3456 0.942989 16.1963 0.804357 16.0125 0.735088C13.8736 -0.0557972 11.5521 -0.212368 9.32642 0.28416C7.10079 0.780688 5.0656 1.90923 3.465 3.53438C1.39568 5.63188 0.169589 8.41769 0.0202217 11.3613C-0.129146 14.3049 0.808643 17.2006 2.655 19.4971H0.75C0.551088 19.4971 0.360322 19.5762 0.21967 19.7169C0.0790176 19.8576 0 20.0485 0 20.2476C0 20.4466 0.0790176 20.6375 0.21967 20.7782C0.360322 20.919 0.551088 20.998 0.75 20.998H4.5C4.69891 20.998 4.88968 20.919 5.03033 20.7782C5.17098 20.6375 5.25 20.4466 5.25 20.2476V16.4952C5.25 16.2961 5.17098 16.1052 5.03033 15.9645C4.88968 15.8238 4.69891 15.7447 4.5 15.7447Z" fill="black"/>
<path d="M23.25 4.48729C23.4489 4.48729 23.6397 4.40822 23.7803 4.26748C23.921 4.12674 24 3.93585 24 3.73681C24 3.53777 23.921 3.34688 23.7803 3.20614C23.6397 3.0654 23.4489 2.98633 23.25 2.98633H19.5C19.3011 2.98633 19.1103 3.0654 18.9697 3.20614C18.829 3.34688 18.75 3.53777 18.75 3.73681V7.48921C18.75 7.68825 18.829 7.87914 18.9697 8.01988C19.1103 8.16062 19.3011 8.23969 19.5 8.23969C19.6989 8.23969 19.8897 8.16062 20.0303 8.01988C20.171 7.87914 20.25 7.68825 20.25 7.48921V5.53046C21.8287 7.53654 22.6233 10.0492 22.4852 12.5989C22.3472 15.1485 21.286 17.5606 19.5 19.3843C18.1083 20.8104 16.3331 21.802 14.3896 22.239C12.446 22.6759 10.4176 22.5393 8.55001 21.8459C8.45792 21.8084 8.35936 21.7895 8.25996 21.7902C8.16056 21.7908 8.06226 21.8111 7.97068 21.8498C7.87909 21.8884 7.79602 21.9448 7.7262 22.0156C7.65638 22.0864 7.60119 22.1703 7.56376 22.2624C7.52633 22.3546 7.50741 22.4532 7.50807 22.5526C7.50874 22.6521 7.52897 22.7505 7.56762 22.8421C7.60628 22.9338 7.66259 23.0169 7.73335 23.0867C7.8041 23.1566 7.88792 23.2118 7.98001 23.2493C9.28745 23.7487 10.6756 24.0031 12.075 23.9998C14.3275 23.9815 16.5294 23.3292 18.4288 22.1175C20.3282 20.9058 21.8484 19.1836 22.8155 17.1479C23.7827 15.1122 24.1576 12.8452 23.8976 10.6062C23.6375 8.36727 22.7529 6.24677 21.345 4.48729H23.25Z" fill="black"/>
<path d="M9.00003 12.743C9.19608 12.7404 9.39165 12.7228 9.58503 12.6904C10.0489 12.6144 10.4932 12.4473 10.8922 12.1987C11.2912 11.9501 11.6371 11.625 11.91 11.242L13.2225 9.38831C13.3372 9.22684 13.3834 9.02657 13.351 8.83117C13.3187 8.63576 13.2105 8.46106 13.05 8.34514L12.7875 8.15752L13.6125 7.0243C13.7256 6.86429 13.7716 6.66637 13.7408 6.47284C13.71 6.27931 13.6047 6.10553 13.4475 5.98863C13.3678 5.93028 13.2774 5.88826 13.1814 5.86497C13.0854 5.84169 12.9858 5.8376 12.8883 5.85294C12.7907 5.86828 12.6971 5.90275 12.6129 5.95437C12.5287 6.00599 12.4555 6.07374 12.3975 6.15374L11.5725 7.29447L10.0725 6.18376L10.8675 5.08055C10.9331 5.00182 10.9819 4.91048 11.0108 4.81217C11.0398 4.71386 11.0483 4.61066 11.0358 4.50893C11.0234 4.4072 10.9902 4.30909 10.9385 4.22067C10.8867 4.13224 10.8173 4.05537 10.7347 3.99478C10.6521 3.93419 10.558 3.89118 10.4581 3.86839C10.3583 3.84561 10.2548 3.84353 10.1541 3.86229C10.0534 3.88104 9.95763 3.92024 9.87265 3.97746C9.78768 4.03468 9.71532 4.10871 9.66003 4.19499L8.81253 5.29819L8.45253 5.03552C8.2879 4.92335 8.08691 4.87776 7.89003 4.90794C7.69426 4.93958 7.51898 5.04751 7.40253 5.20813L6.08253 7.06932C5.6039 7.74415 5.37044 8.56254 5.42092 9.38851C5.4714 10.2145 5.80279 10.9983 6.36003 11.6097L5.37753 13.1107C5.31091 13.223 5.27472 13.3508 5.27256 13.4813C5.2704 13.6119 5.30234 13.7408 5.36521 13.8553C5.42808 13.9697 5.51971 14.0658 5.63105 14.1339C5.74238 14.2021 5.86957 14.24 6.00003 14.2439C6.12288 14.2441 6.2439 14.2141 6.35244 14.1565C6.46098 14.0989 6.55373 14.0156 6.62253 13.9137L7.58253 12.4728C8.0319 12.6578 8.51413 12.7498 9.00003 12.743ZM7.29753 7.93988L8.18253 6.69408L11.5725 9.14065L10.6875 10.394C10.5285 10.6181 10.3267 10.8085 10.0937 10.954C9.86064 11.0996 9.60109 11.1975 9.33003 11.242C9.06102 11.2876 8.78559 11.2785 8.52015 11.2154C8.25471 11.1522 8.0047 11.0362 7.78503 10.8743C7.33434 10.5477 7.03043 10.0565 6.93918 9.50723C6.84792 8.95795 6.97667 8.39482 7.29753 7.93988Z" fill="black"/>
<path d="M15.3675 10.4911C15.1669 10.4979 14.9764 10.5811 14.835 10.7238C14.5425 11.024 12 13.7257 12 16.0222C12 18.3186 13.26 19.4969 15.375 19.4969C15.8305 19.5113 16.2839 19.4305 16.7064 19.2596C17.1289 19.0888 17.5111 18.8317 17.8287 18.5047C18.1463 18.1777 18.3923 17.7881 18.5509 17.3606C18.7095 16.9332 18.7773 16.4773 18.75 16.0222C18.75 13.6206 16.1925 11.0014 15.9075 10.7163C15.8408 10.6397 15.7574 10.5796 15.6638 10.5405C15.5701 10.5015 15.4687 10.4846 15.3675 10.4911ZM16.1175 17.8608V16.0222C16.1175 15.8231 16.0385 15.6322 15.8978 15.4915C15.7572 15.3507 15.5664 15.2717 15.3675 15.2717C15.1686 15.2717 14.9778 15.3507 14.8372 15.4915C14.6965 15.6322 14.6175 15.8231 14.6175 16.0222V17.8908C14.2425 17.7589 13.9255 17.4998 13.7214 17.1585C13.5173 16.8172 13.439 16.4152 13.5 16.0222C13.5 14.8889 14.595 13.3204 15.3825 12.3673C16.1325 13.2904 17.25 14.8289 17.25 16.0222C17.2948 16.4103 17.2083 16.8024 17.0044 17.1356C16.8005 17.4689 16.4909 17.7242 16.125 17.8608H16.1175Z" fill="black"/>
</svg>

<svg width="24" height="24" viewBox="0 0 24 24" fill="none" xmlns="http://www.w3.org/2000/svg"><path d="M4.5 15.745a.75.75 0 0 0-.75.75v1.966A10.511 10.511 0 0 1 4.5 4.585a10.37 10.37 0 0 1 10.988-2.462.75.75 0 0 0 .967-.435.751.751 0 0 0-.442-.953 11.843 11.843 0 0 0-12.548 2.8 12.011 12.011 0 0 0-.81 15.962H.75a.75.75 0 0 0 0 1.501H4.5a.75.75 0 0 0 .75-.75v-3.753a.75.75 0 0 0-.75-.75ZM23.25 4.487a.75.75 0 0 0 0-1.5H19.5a.75.75 0 0 0-.75.75v3.752a.75.75 0 1 0 1.5 0V5.53a10.51 10.51 0 0 1-.75 13.854 10.297 10.297 0 0 1-10.95 2.462.755.755 0 0 0-1.042.707.758.758 0 0 0 .472.696c1.307.5 2.696.754 4.095.75a11.995 11.995 0 0 0 10.74-6.851 12.014 12.014 0 0 0-1.47-12.66h1.905Z" fill="currentColor"/><path d="M9 12.743a3.85 3.85 0 0 0 .585-.053 3.56 3.56 0 0 0 2.325-1.448l1.313-1.854a.75.75 0 0 0-.173-1.043l-.263-.187.825-1.134a.75.75 0 0 0-.43-1.159.75.75 0 0 0-.784.289l-.825 1.14-1.5-1.11.794-1.103a.75.75 0 1 0-1.207-.886l-.847 1.103-.36-.262a.787.787 0 0 0-.563-.128.75.75 0 0 0-.487.3L6.083 7.07a3.626 3.626 0 0 0 .277 4.54l-.982 1.502A.75.75 0 0 0 6 14.244a.75.75 0 0 0 .623-.33l.96-1.441c.449.185.931.277 1.417.27ZM7.298 7.94l.885-1.246 3.39 2.447-.886 1.253a2.077 2.077 0 0 1-2.167.821A2.117 2.117 0 0 1 7.297 7.94Zm8.069 2.551a.787.787 0 0 0-.532.233c-.293.3-2.835 3.002-2.835 5.298 0 2.297 1.26 3.475 3.375 3.475a3.274 3.274 0 0 0 3.176-2.136c.159-.428.226-.884.199-1.339 0-2.401-2.558-5.02-2.842-5.306a.66.66 0 0 0-.54-.225Zm.75 7.37v-1.839a.75.75 0 1 0-1.5 0v1.869a1.702 1.702 0 0 1-1.117-1.869c0-1.133 1.095-2.702 1.883-3.655.75.923 1.867 2.462 1.867 3.655a1.75 1.75 0 0 1-1.125 1.839h-.008Z" fill="currentColor"/></svg>
